X:23
T: Das Schwabentoechterlein
N: Q0073A
O: Mitteleuropa, Deutschland / UdSSR, Ostpreussen, Kr. Pr. - Eylau,
R: Ballade, Weglaufen, Schwangerschaft, Rueckkehr
M: 3/4
L: 1/8
K: C
C2 | EDC2G2 | G^FG2
G2 | cBc2d2 | cBA2
G2 | cBc2E2 | FAG2
F2 | ECG2E2 | D2C2

@@@ Tune index: 1078
